X: 2238
T: the SHORT GRASS
Q: "Irish Jig."
R: Jig.
%R: jig
B: James Kerr "Merry Melodies" v.2 p.26 #238
Z: 2016 John Chambers <jc:trillian.mit.edu>
M: 6/8
L: 1/8
K: C
ve/ud/ |\
cGE cGE | EDE CEG | cGE cGE | Add ded |\
cGE cGE | EDE CEG | cee ue2ud | cAA A2 :|
|: ue |\
gag ged | ecc cde | aba age | edd d2ue |\
gag ged | ecc cde | fed fed | ecA A2 :|
